X: 35789
T: Sally Sloane's
R: jig
M: 6/8
K: Gmajor
d|:edB g2d|edB efg|edB g2d|eaa a2d|
edB g2d|edB efg|eaa ged|BAA A2d:|
|:eaa egg|eaa ged|eaa egg|age d3|
eaa egg|eaa ged|ged cde|dBA A2d:|

